packages/IcoMoon/src/Stumbleupon2Icon/index.svg

<svg version="1.1" xmlns="http://www.w3.org/2000/svg" width="16" height="16" viewBox="0 0 16 16">
<path d="M13.313 0h-10.625c-1.478 0-2.688 1.209-2.688 2.688v10.625c0 1.478 1.209 2.688 2.688 2.688h10.625c1.478 0 2.688-1.209 2.688-2.688v-10.625c0-1.478-1.209-2.688-2.688-2.688zM8 5c-0.551 0-1 0.449-1 1v4c0 1.654-1.346 3-3 3s-3-1.346-3-3v-2h2v2c0 0.551 0.449 1 1 1s1-0.449 1-1v-4c0-1.654 1.346-3 3-3s3 1.346 3 2.781v0.969l-1.281 0.375-0.719-0.375v-0.969c0-0.333-0.449-0.781-1-0.781zM15 10c0 1.654-1.346 3-3 3s-3-1.346-3-3.219v-1.938l0.719 0.375 1.281-0.375v1.938c0 0.77 0.449 1.219 1 1.219s1-0.449 1-1v-2h2v2z"></path>
</svg>

<svg xmlns="http://www.w3.org/2000/svg" viewBox="0 0 16 16">
  <path d="M13.313 0H2.688A2.696 2.696 0 000 2.688v10.625a2.696 2.696 0 002.688 2.688h10.625a2.696 2.696 0 002.688-2.688V2.688A2.696 2.696 0 0013.313 0zM8 5c-.551 0-1 .449-1 1v4c0 1.654-1.346 3-3 3s-3-1.346-3-3V8h2v2c0 .551.449 1 1 1s1-.449 1-1V6c0-1.654 1.346-3 3-3s3 1.346 3 2.781v.969l-1.281.375L9 6.75v-.969C9 5.448 8.551 5 8 5zm7 5c0 1.654-1.346 3-3 3s-3-1.346-3-3.219V7.843l.719.375L11 7.843v1.938c0 .77.449 1.219 1 1.219s1-.449 1-1V8h2v2z"/>
</svg>
